src/assets/svg/skills/react.svg

<svg width="256" height="228" viewBox="0 0 256 228" fill="none" xmlns="http://www.w3.org/2000/svg">
<path d="M210.483 73.8236C207.828 72.9096 205.076 72.0447 202.242 71.2267C202.708 69.3261 203.136 67.4501 203.516 65.606C209.754 35.3249 205.675 10.9302 191.747 2.89849C178.392 -4.8029 156.551 3.22704 134.493 22.4238C132.372 24.2697 130.245 26.2241 128.118 28.2724C126.702 26.9172 125.287 25.6076 123.877 24.3549C100.759 3.82853 77.5867 -4.82158 63.6726 3.23341C50.3304 10.9571 46.3792 33.8904 51.9945 62.588C52.5368 65.3599 53.1706 68.1906 53.8874 71.0686C50.6079 71.9996 47.4419 72.992 44.4125 74.0478C17.3093 83.4972 0 98.3067 0 113.668C0 129.533 18.5816 145.446 46.8117 155.095C49.0395 155.857 51.3511 156.577 53.7334 157.26C52.9601 160.373 52.2875 163.423 51.7229 166.398C46.3687 194.598 50.55 216.989 63.8567 224.664C77.6013 232.59 100.669 224.443 123.13 204.809C124.906 203.257 126.687 201.611 128.472 199.886C130.786 202.114 133.095 204.222 135.393 206.2C157.15 224.922 178.638 232.482 191.932 224.786C205.663 216.837 210.126 192.783 204.332 163.518C203.89 161.283 203.375 159 202.797 156.676C204.417 156.197 206.007 155.702 207.557 155.188C236.905 145.465 256 129.745 256 113.668C256 98.2511 238.132 83.3418 210.483 73.8236ZM204.118 144.808C202.718 145.271 201.282 145.719 199.818 146.153C196.578 135.896 192.206 124.99 186.855 113.721C191.961 102.721 196.165 91.9541 199.314 81.7638C201.933 82.5216 204.474 83.3208 206.924 84.1643C230.613 92.3195 245.064 104.377 245.064 113.668C245.064 123.564 229.458 136.411 204.118 144.808ZM193.604 165.642C196.166 178.583 196.531 190.283 194.835 199.429C193.31 207.648 190.244 213.127 186.452 215.322C178.385 219.991 161.132 213.921 142.525 197.91C140.392 196.074 138.244 194.115 136.088 192.04C143.302 184.151 150.511 174.98 157.547 164.794C169.923 163.696 181.615 161.9 192.218 159.449C192.74 161.556 193.204 163.622 193.604 165.642ZM87.2762 214.515C79.3939 217.298 73.116 217.378 69.3212 215.19C61.2461 210.533 57.8891 192.554 62.4682 168.438C62.9927 165.676 63.617 162.839 64.3365 159.939C74.8235 162.258 86.43 163.927 98.8353 164.933C105.919 174.9 113.336 184.061 120.811 192.083C119.178 193.659 117.551 195.16 115.934 196.575C106.001 205.257 96.048 211.417 87.2762 214.515ZM50.3486 144.747C37.8658 140.48 27.557 134.935 20.4909 128.884C14.1415 123.447 10.9358 118.048 10.9358 113.668C10.9358 104.346 24.8335 92.4562 48.0124 84.3748C50.8248 83.3942 53.7689 82.4701 56.8242 81.602C60.0276 92.0224 64.2299 102.917 69.3011 113.934C64.1643 125.115 59.9023 136.183 56.6675 146.726C54.4893 146.099 52.3791 145.441 50.3486 144.747ZM62.7271 60.4878C57.916 35.9004 61.1112 17.3526 69.1516 12.6983C77.7161 7.74006 96.6545 14.8094 116.615 32.533C117.891 33.6658 119.172 34.8514 120.456 36.0781C113.018 44.0648 105.669 53.1573 98.648 63.0656C86.6082 64.1815 75.0832 65.9742 64.4869 68.3747C63.8207 65.6948 63.2306 63.0619 62.7271 60.4878ZM173.154 87.755C170.621 83.3796 168.02 79.1077 165.369 74.9523C173.537 75.9849 181.363 77.3556 188.712 79.0329C186.506 86.1041 183.756 93.4975 180.519 101.077C178.196 96.6681 175.74 92.2229 173.154 87.755ZM128.122 43.8939C133.166 49.3588 138.218 55.4603 143.187 62.0804C138.18 61.8439 133.111 61.7209 128 61.7209C122.937 61.7209 117.906 61.8412 112.93 62.0736C117.904 55.515 122.999 49.4217 128.122 43.8939ZM82.8019 87.8307C80.2715 92.2184 77.861 96.6394 75.5753 101.069C72.3906 93.5157 69.6661 86.0886 67.4406 78.9172C74.7446 77.2827 82.5335 75.9462 90.6496 74.9332C87.9611 79.1268 85.3391 83.4302 82.8019 87.8298V87.8307ZM90.8833 153.183C82.498 152.247 74.592 150.98 67.2898 149.39C69.5508 142.091 72.3355 134.505 75.5876 126.79C77.8792 131.216 80.2993 135.638 82.8452 140.036H82.8456C85.4389 144.515 88.1256 148.904 90.8833 153.183ZM128.425 184.213C123.241 178.621 118.071 172.434 113.022 165.78C117.924 165.972 122.921 166.071 128 166.071C133.218 166.071 138.376 165.953 143.453 165.727C138.468 172.501 133.435 178.697 128.425 184.213ZM180.623 126.396C184.045 134.195 186.929 141.741 189.219 148.916C181.797 150.61 173.783 151.974 165.339 152.987C167.997 148.776 170.62 144.43 173.198 139.961C175.805 135.438 178.282 130.909 180.623 126.396ZM163.725 134.497C159.723 141.436 155.614 148.059 151.444 154.312C143.847 154.855 135.999 155.135 128 155.135C120.033 155.135 112.284 154.887 104.822 154.403C100.483 148.068 96.2854 141.425 92.3091 134.557H92.31C88.3443 127.707 84.6943 120.799 81.387 113.93C84.6934 107.046 88.3338 100.13 92.2768 93.2929L92.2759 93.2942C96.2293 86.4386 100.39 79.8276 104.689 73.5329C112.302 72.9574 120.11 72.6571 128 72.6571H128C135.926 72.6571 143.743 72.9597 151.354 73.5402C155.587 79.7889 159.72 86.3784 163.689 93.235C167.703 100.169 171.39 107.038 174.725 113.775C171.4 120.628 167.721 127.567 163.725 134.497ZM186.285 12.3729C194.857 17.3166 198.191 37.2542 192.805 63.3987C192.461 65.0669 192.075 66.7661 191.654 68.4881C181.033 66.0375 169.5 64.2139 157.425 63.0811C150.391 53.0639 143.102 43.9572 135.785 36.0731C137.752 34.1807 139.716 32.3762 141.673 30.6733C160.572 14.2257 178.237 7.73185 186.285 12.3729ZM128 90.8081C140.625 90.8081 150.86 101.043 150.86 113.668C150.86 126.293 140.625 136.528 128 136.528C115.375 136.528 105.14 126.293 105.14 113.668C105.14 101.043 115.375 90.8081 128 90.8081Z" fill="#00D8FF"/>
</svg>

<svg xmlns="http://www.w3.org/2000/svg" width="256" height="228" fill="none"><path fill="#00D8FF" d="M210.483 73.824a171.204 171.204 0 0 0-8.241-2.597c.466-1.9.894-3.777 1.274-5.621 6.238-30.281 2.159-54.676-11.769-62.708-13.355-7.7-35.196.329-57.254 19.526a171.96 171.96 0 0 0-6.375 5.848 156.004 156.004 0 0 0-4.241-3.917C100.759 3.829 77.587-4.822 63.673 3.233 50.33 10.957 46.379 33.89 51.995 62.588a170.984 170.984 0 0 0 1.892 8.48c-3.28.932-6.445 1.924-9.474 2.98C17.309 83.498 0 98.307 0 113.668c0 15.865 18.582 31.778 46.812 41.427 2.227.762 4.54 1.482 6.921 2.165a167.543 167.543 0 0 0-2.01 9.138c-5.354 28.2-1.173 50.591 12.134 58.266 13.744 7.926 36.812-.221 59.273-19.855a145.238 145.238 0 0 0 5.342-4.923 168.224 168.224 0 0 0 6.921 6.314c21.757 18.722 43.245 26.282 56.539 18.586 13.731-7.949 18.194-32.003 12.4-61.268a144.76 144.76 0 0 0-1.535-6.842c1.62-.479 3.21-.974 4.76-1.488 29.348-9.723 48.443-25.443 48.443-41.52 0-15.417-17.868-30.326-45.517-39.844Zm-6.365 70.984c-1.4.463-2.836.911-4.3 1.345-3.24-10.257-7.612-21.163-12.963-32.432 5.106-11 9.31-21.767 12.459-31.957 2.619.758 5.16 1.557 7.61 2.4 23.689 8.156 38.14 20.213 38.14 29.504 0 9.896-15.606 22.743-40.946 31.14Zm-10.514 20.834c2.562 12.941 2.927 24.641 1.231 33.787-1.525 8.219-4.591 13.698-8.383 15.893-8.067 4.669-25.32-1.401-43.927-17.412a157.022 157.022 0 0 1-6.437-5.87c7.214-7.889 14.423-17.06 21.459-27.246 12.376-1.098 24.068-2.894 34.671-5.345a134.17 134.17 0 0 1 1.386 6.193ZM87.276 214.515c-7.882 2.783-14.16 2.863-17.955.675-8.075-4.657-11.432-22.636-6.853-46.752a156.943 156.943 0 0 1 1.868-8.499c10.487 2.319 22.094 3.988 34.5 4.994 7.083 9.967 14.5 19.128 21.975 27.15a136.21 136.21 0 0 1-4.877 4.492c-9.933 8.682-19.886 14.842-28.658 17.94ZM50.35 144.747c-12.483-4.267-22.792-9.812-29.858-15.863-6.35-5.437-9.555-10.836-9.555-15.216 0-9.322 13.898-21.212 37.076-29.293a157.83 157.83 0 0 1 8.812-2.773c3.204 10.42 7.406 21.315 12.477 32.332-5.137 11.181-9.399 22.249-12.634 32.792a135.217 135.217 0 0 1-6.318-1.979Zm12.378-84.26c-4.811-24.587-1.616-43.134 6.425-47.789 8.564-4.958 27.502 2.111 47.463 19.835a143.243 143.243 0 0 1 3.841 3.545c-7.438 7.987-14.787 17.08-21.808 26.988-12.04 1.115-23.565 2.908-34.161 5.309a160.337 160.337 0 0 1-1.76-7.887Zm110.427 27.268a347.908 347.908 0 0 0-7.785-12.803c8.168 1.033 15.994 2.404 23.343 4.08-2.206 7.072-4.956 14.466-8.193 22.045a383.1 383.1 0 0 0-7.365-13.322Zm-45.032-43.861c5.044 5.465 10.096 11.566 15.065 18.186a322.04 322.04 0 0 0-30.257-.006c4.974-6.559 10.069-12.652 15.192-18.18ZM82.802 87.83a322.895 322.895 0 0 0-7.227 13.238c-3.184-7.553-5.909-14.98-8.134-22.152 7.304-1.634 15.093-2.97 23.209-3.984a321.484 321.484 0 0 0-7.848 12.897Zm8.081 65.352c-8.385-.936-16.291-2.203-23.593-3.793 2.26-7.299 5.045-14.885 8.298-22.6a321.61 321.61 0 0 0 7.257 13.246 323.646 323.646 0 0 0 8.038 13.147Zm37.542 31.03c-5.184-5.592-10.354-11.779-15.403-18.433 4.902.192 9.899.291 14.978.291 5.218 0 10.376-.118 15.453-.344-4.985 6.774-10.018 12.97-15.028 18.486Zm52.198-57.817c3.422 7.799 6.306 15.345 8.596 22.52-7.422 1.694-15.436 3.058-23.88 4.071a382.34 382.34 0 0 0 7.859-13.026 348.835 348.835 0 0 0 7.425-13.565Zm-16.898 8.101a359.3 359.3 0 0 1-12.281 19.815c-7.597.543-15.445.823-23.444.823-7.967 0-15.716-.248-23.178-.732a310.503 310.503 0 0 1-12.513-19.846h.001a307.484 307.484 0 0 1-10.923-20.627 310.38 310.38 0 0 1 10.89-20.637l-.001.001a307.24 307.24 0 0 1 12.413-19.761A309.896 309.896 0 0 1 128 72.657c7.926 0 15.743.303 23.354.883a329.5 329.5 0 0 1 12.335 19.695 358.95 358.95 0 0 1 11.036 20.54 329.694 329.694 0 0 1-11 20.722Zm22.56-122.124c8.572 4.944 11.906 24.881 6.52 51.026-.344 1.668-.73 3.367-1.151 5.09-10.621-2.452-22.154-4.275-34.229-5.408-7.034-10.017-14.323-19.124-21.64-27.008a160.082 160.082 0 0 1 5.888-5.4c18.899-16.447 36.564-22.941 44.612-18.3ZM128 90.808c12.625 0 22.86 10.235 22.86 22.86s-10.235 22.86-22.86 22.86-22.86-10.235-22.86-22.86 10.235-22.86 22.86-22.86Z"/></svg>
